X: 5510
T: Bunting Fund, The
R: jig
M: 6/8
K: Dmajor
FGA|:S D2A Bcd|e2g fdA|FGA eAf|AgA aba|
fga gag|ez g fga|1 eAf gAf|ecA FGA:|2 fdA ecA|dz c Bcd||
F2d d2c-|cdc AcB|G2A Fdc|B2A Bcd|
F2d d2c-|cdc AcB|GBA B2d-|dcB Bcd|
F2d (3ded c-|cdc AcB|G2A Fdc|B2A Bdc|
B2A edc|d2e fBc|def gag|ecA FGA||

